X: 11141
T: FLOW THOU REGAL PURPLE STREAM.
Q: "Moderate."
%R: air, march, reel
B: W. Hamilton "Universal Tune-Book" Vol. 1 Glasgow 1844 p.114 #1 (and p.115 #1)
S: http://imslp.org/wiki/Hamilton's_Universal_Tune-Book_(Various)
Z: 2016 John Chambers <jc:trillian.mit.edu>
M: C|
L: 1/8
K: D
%%stretchstaff 0
%%slurgraces yes
%%graceslurs yes
% - - - - - - - - - - - - - - - - - - - - - - - - -
[|\
d4 e4 | f2d2 (fe)(dc) | {c}d4 g3f | (fe) zd c2d2 |\
{d}e4 z4 | d4 e4 | f2d2 (fe)(dc) | {c}d4 f3f |\
(fe)(fd) c2B2 | A4 a3^g | (f^g)(fe) (de)(dc) | B2z2 B3A |
(^GA)(GF) (EF)(ED) | C2z2 E2(F^G) | (A^GAB) (cB)(cd) | e2z2 (dc)(Bc) |\
(dc)(de) (fe)(f^g) | a2z2 (fe)(dc) | (dB)(cd) (ed)(cB) | (cA)(Bc) (dB)(cd) |\
e2f2 d2c2 | a2z2 (fe)(dc) |
(dB)(cd) e2E2 | A4 z4 |\
z2zA A3B | c3d e3f | =g2z2 g3g | f2(3(gfe) d2c2 |\
B2zB f3e | (ed)(cB) (B^A) (^GF) | B2z2 f3e | (ed)(cB) (B^A)(^GF) |\
B2zB g3g | g2zg f2f2 |
f4 e3e | e2d2 (fe)(dc) |\
B4 g3g | (gf)(ed) (fe)(dc) | B4((dc) BAGF | E2gf edcB |\
c2ed cBAG | F2ag fedc | Bcdc BAGF | GABA GFED) |
A2zA d2d2 | c2zA d2d2 | HA4 z4 | d4 e4 |\
f3d (fe)(dc) | d2z2 g2f2 | {f}e2zd c2d2 | {d}e4 z4 |\
d4 e4 | f3d (fe)(dc) | d2zd (gf)(ed) | c2zd (fe)(dc) |
d4 z4 | z4 d2(fe) | (de)(dc) (BA)GF | E2z2 e2(gf) |\
(ef)(ed) (cB)(AG) | F2z2 F2A2 | d3A d2f2 | d2zD F2A2 |\
d2zA d2f2 | d2z2 (ag)(fe) |
(dc)(BA) (GF)(ED) | C2zA d2f2 |\
B2d2 (fe)(dc) | d2z2 g3g | f2d2 (fe)(dc) | d2zd g3g |\
f2zd (fe)(dc) | d4 f4 | g4 f4 | f4 f4 | g4 e4 | d4 z4 |]
% - - - - - - - - - - - - - - - - - - - - - - - - -

% (Continued from previous page)

%%sep 1 1 500
%%sep 1 1 500

